X: 1978
T: Yegâh Sazsemâîsi
C: Aziz Dede
O: Turkey
F: http://compmusic.upf.edu/node/140
N: yegah--sazsemaisi--aksaksemai----neyzen_aziz_dede
N: makam= yegah
N: form= sazsemaisi
N: usul= aksaksemai = 10/8
M: 10/8
L: 1/16
K: C _2/4B ^f  
Q: 1/4=114
%%MIDI tuningsystem comma53
d4 dcd2 deg=f edcd c2B2  | g4 g^3/4ffe de=fe d^3/4cd4z2  | 
w:  1. HANE  |   | 
A4 d^3/4cd2 e2^3/4f2 g2a4g2  | ^3/4f4 d2e=f ed^3/4cd ecd4z2  | 
w:   |   | 
d3g f^ef4ef gef4a2  | agg^1/4f =feed dedc Bdcd c2B2  | 
w:  TESLİM  |   | 
A3e d^3/4cd3=cAB cdB2 A2G2  | ^3/4F4 D2E3DE2 F2D4z2  | 
w:   |   | 
D4 ^3/4E2F4AG F=EF4z2  | A4 A^3/4GA4B2 ^3/4c2d4z2  | \
w:  2. HANE  |   | 
d4 d^3/4cd3e^3/4f2 d2f2 g2a2  | 
w:   | 
^3/4f4 d2e4A2 B^3/4cd4z2  | d3g f^ef4ef gef4a2  | \
w:   |  TESLİM  | 
agg^1/4f =feed dedc Bdcd c2B2  | 
w:   | 
A3e d^3/4cd3=cAB cdB2 A2G2  | ^3/4F4 D2E3DE2 F2D4z2  | 
w:   |   | 
a4 a^ga4ga =bga4z2  | a2d'2 c'_1/4bba2bag f^3/4ef4z2  | 
w:  3. HANE  |   | 
e2^3/4f2 g2c'2 _1/4b2a2 g2f2 d2^f2  | \
w:   | 
e4 ^3/4c2A4dc =Bcd4z2  | d3g f^ef4ef gef4a2  | 
w:   |  TESLİM  | 
agg^1/4f =feed dedc Bdcd c2B2  | A3e d^3/4cd3=cAB cdB2 A2G2  | 
w:   |   | 
^3/4F4 D2E3DE2 F2D4z2  | z24  | d3^3/4cd3=BA3G^3/4F3ED4z4  | \
w:   |  |  4. HANE  | 
d3^3/4cd3^3/4fe3dc3=BA4z4  | 
w:   | 
d3^3/4cd3e^3/4f3ga3=ba3gf3e  | d3^3/4fe3d^3/4c3A=B3cd4z4  | 
w:   |   | 
d3^3/4cd3=BA3G^3/4F3ED4z4  | d3^3/4cd3^3/4fe3dc3=BA4z4  | \
w:  4. HANE  |   | 
d3^3/4cd3e^3/4f3ga3=ba3gf3e  | 
w:   | 
d3^3/4fe3d^3/4c3A=B3cd4z4  | z20  | d3g f^ef4ef gef4a2  | 
w:   |  |  TESLİM  | 
agg^1/4f =feed dedc Bdcd c2B2  | A3e d^3/4cd3=cAB cdB2 A2G2  | 
w:   |   | 
^3/4F4 D2E3DE2 F2D4z2  | |


